src/assets/projects_play.svg

<svg width="32" height="32" viewBox="0 0 32 32" fill="none" xmlns="http://www.w3.org/2000/svg">
<path d="M18.7145 25.6777C17.7123 26.7166 16.6029 27.6113 15.6734 28.2894C15.0309 28.7584 14.2638 29 13.4838 29C13.0418 29 12.5965 28.9231 12.1664 28.7649C9.38527 27.7489 4.64212 25.5109 4.12425 21.9482L3.04193 14.5085C2.76133 12.575 3.91299 10.6967 5.78078 10.0413C6.87827 9.65675 7.96817 9.34262 9.03966 9.10214L8.37012 13.707C8.31811 14.0633 8.29536 14.4154 8.2997 14.7631C7.52506 14.8823 6.96386 15.634 6.75368 16.6198C6.68326 16.9491 6.96386 17.247 7.29646 17.1993L8.68214 17.0011C9.05266 18.1287 9.66695 19.1978 10.4221 20.1912C9.23901 20.7848 8.39395 21.9146 8.01693 23.248C7.87609 23.7474 8.44379 24.146 8.87498 23.8579C10.0841 23.0498 11.2043 22.5699 12.4101 22.3804C13.2563 23.1809 14.1523 23.9034 15.0157 24.5349C16.0417 25.2856 17.2562 25.6831 18.527 25.6831C18.5899 25.6831 18.6516 25.6821 18.7145 25.6799V25.6777ZM15.7546 10.3944L18.4285 10.7768C18.7611 10.8245 19.0417 10.5266 18.9712 10.1973C18.76 9.20721 18.1944 8.4522 17.4122 8.33846C16.6289 8.22581 15.876 8.79342 15.3949 9.686C15.2357 9.98172 15.422 10.3468 15.7546 10.3944ZM28.9581 9.02523L27.8747 16.4649C27.3557 20.0276 22.6147 22.2645 19.8336 23.2816C19.4079 23.4376 18.9658 23.5134 18.526 23.5134C17.734 23.5134 16.9518 23.2654 16.2941 22.7833C13.9128 21.0404 9.99414 17.5849 10.5131 14.0168L11.5954 6.57713C11.876 4.64898 13.513 3.16604 15.4881 3.05122C17.3938 2.94289 19.2258 3.00572 20.9344 3.2462C22.6429 3.48667 24.4208 3.92647 26.2181 4.55691C28.087 5.21226 29.2387 7.09166 28.9581 9.02523ZM22.4739 14.3688C20.0243 14.9375 18.1663 14.6732 15.9745 13.4437C15.5076 13.1816 14.9518 13.6355 15.1392 14.137C15.7427 15.7521 17.0417 16.9935 18.7448 17.234C20.4479 17.4755 22.0459 16.6479 23.0784 15.2636C23.397 14.8368 22.9928 14.2486 22.4739 14.3688ZM24.0275 10.9187C23.8162 9.92865 23.2507 9.17363 22.4685 9.05989C21.6852 8.94724 20.9322 9.51485 20.4512 10.4074C20.2919 10.7032 20.4772 11.0682 20.8098 11.1159L23.4836 11.4982C23.8162 11.5459 24.0979 11.248 24.0275 10.9187Z" fill="white"/>
</svg>

<svg fill="#fff"
  xmlns="http://www.w3.org/2000/svg" viewBox="0 0 32 32">
  <path d="M18.715 25.678c-1.003 1.039-2.112 1.933-3.042 2.611-.642.47-1.41.711-2.19.711-.441 0-.886-.077-1.317-.235-2.78-1.016-7.524-3.254-8.042-6.817l-1.082-7.44c-.28-1.933.871-3.811 2.739-4.467a29.234 29.234 0 0 1 3.259-.939l-.67 4.605a6.72 6.72 0 0 0-.07 1.056c-.775.12-1.336.871-1.546 1.857-.07.33.21.627.542.58L8.682 17c.37 1.128.985 2.197 1.74 3.19-1.183.594-2.028 1.724-2.405 3.057-.14.5.427.898.858.61 1.21-.808 2.33-1.288 3.535-1.478a27 27 0 0 0 2.606 2.155 5.91 5.91 0 0 0 3.699 1.145v-.002Zm-2.96-15.284 2.673.383a.484.484 0 0 0 .543-.58c-.211-.99-.777-1.745-1.559-1.859-.783-.112-1.536.455-2.017 1.348-.16.296.027.66.36.708Zm13.203-1.369-1.083 7.44c-.52 3.563-5.26 5.8-8.041 6.817a3.796 3.796 0 0 1-1.308.231 3.77 3.77 0 0 1-2.232-.73c-2.381-1.743-6.3-5.198-5.78-8.766l1.081-7.44c.281-1.928 1.918-3.411 3.893-3.526 1.906-.108 3.738-.045 5.446.195 1.709.24 3.487.68 5.284 1.31 1.869.656 3.02 2.536 2.74 4.47Zm-6.484 5.344c-2.45.569-4.308.304-6.5-.925-.466-.262-1.022.191-.835.693.604 1.615 1.903 2.857 3.606 3.097 1.703.241 3.3-.586 4.333-1.97.319-.427-.085-1.015-.604-.895Zm1.553-3.45c-.21-.99-.776-1.745-1.559-1.86-.783-.112-1.536.456-2.017 1.348-.16.296.026.661.359.709l2.674.382a.485.485 0 0 0 .543-.58Z"/>
</svg>
